X:1
T:Zwo Art der Früchten
T:André Vierendeels 
T:Melody by Georg Vogler (1625) (Soprano voice)
T:Source Catechismus---Würeburg---J.Volmari---1652. Editor : André Vierendeels (03/09/17).
T:Notes Original clef : C1, other voices  supplied editorially Original note values have been quartered Text Middle German 
T:Zwo Art der Früchten
T:©
T:©
C:André Vierendeels
Z:©
%%score [ 1 2 3 ]
L:1/8
Q:1/4=90
M:3/4
K:F
V:1 treble nm="Soprano" snm="S"
V:2 treble-8 nm="Tenor" snm="T"
V:3 bass nm="Bass" snm="B"
V:1
 z2 z2 F2 |"^1)" F4 F2 | G4 A2 | B4 A2 | G4 A2 | B4 B2 | A4 F2 | G4 A2 | G4 G2 | F4 F2 | F4 D2 | %11
w: Zwo|Art der|Früch- ten|uns ver-|leyth, die|Chris- te-|lich Ge-|rech- tig-|keit: Bösz|lassn, Guts|würckn bey|
w: Ein|Baum so|bö- se|Früch- ten|bringt wird|asz- ge-|ha- wen,|in o-|fen er|springt, der|auff den|
 E4 F2 | G4 A2 | B2 B2 A2 | G4 F2 | G6 | F4 F2 | B2 B2 A2 | G2 A2 F2 | E4 !fermata!F2 |] %20
w: rech- ter-|zeit, den|Glau- ben mit|Wer- cken|zie-|ren, sich|Irz- thumb nicht|las- sen ver-|füh- ren.|
w: Will'n desz|Vat- ters|springt, wird tief-|fer in|Gnad'n|ver- schan-|tzet in ew'ge|glo- ry ge-|plant- zet.|
V:2
"^1)" F2 A2 c2 |"^2)" d4 A2 | c4 d2 | d4 c2 | e4 c2 | d4 G2 | c4 d2 | e4 c2 | c4 e2 | c2 A2 d2 | %10
w: Zwo _ _|Art der|Früch- ten|uns ver-|leyth, die|Chris- te-|lich Ge-|rech- tig-|keit: Bösz|las- sen, Guts|
w: Die _ _|Todt Sünd|bringt umb|Ehr und|Gut, ver-|derbt, ver-|derbt Seel,|Leib und|Blut, In|E- wig- keit|
 c4 B2 | G4 d2 | B4 c2 | d2 d2 d2 | e4 c2 | e6 | c2 A2 d2- | d2 G2 F2 | D2 E2 A2 | %19
w: würckn bey|rech- ter-|zeit, den|Glau- ben mit|Wer- cken|zie-|ren, sich Irz-|* thumb nicht|las- sen ver-|
w: thut sie|ver- dam-|men,, zi|imer- wehr- ke-|ren- de|Flam-|men, ein Baum|_ so bö-|* se Früch-|
 G4 !fermata!A2 |] %20
w: füh- ren.|
w: ten bringt.|
V:3
"^1)""^4)""^3)" F,4 A,2 | D,4 F,2 | E,4 D,2 | B,,4 F,,2 | C,4 F,2 | B,,4 G,,2 | F,,4 D,2 | %7
w: Zwo _|Art der|Früch- ten|uns ver-|leyth, die|Chris- te-|lich Ge-|
w: Dar- *|umb Hof-|farth, Geitz,|Zorn ver-|meyd, Un-|keusch- heit,|Fratz, Träg-|
 C,4 F,2 | E,4 C,2 | F,2 F,2 B,,2 | F,4 B,,2 | C,4 B,,2 | G,,4 F,,2 | B,,2 G,,2 D,2 | C,4 F,2 | %15
w: rech- tig-|keit: Bösz|las- sen, Guts|würckn bey|rech- ter-|zeit, den|Glau- ben mit|Wer- cken|
w: heit und|Neyd, kein|Raach nicht leid|bist du|_ ge-|scheidt, sonst|bist ge- wisz-|lich ver-|
 C,6 | F,4 D,2 | B,,2 G,,2 D,2 | B,,2 A,,2 F,,2 | C,4 !fermata!F,,2 |] %20
w: zie-|ren, sich|Irz- thumb nicht|las- sen ver-|füh- ren.|
w: loh-|ren, wer|bes- ser werst|nie _ ge-|boh- ren.|

